img/target.svg

<svg width="82" height="82" viewBox="0 0 82 82" fill="none" xmlns="http://www.w3.org/2000/svg">
<g clip-path="url(#clip0)">
<path d="M56.8844 63.2088C56.3401 62.6438 55.336 62.4817 54.5978 63.188C54.5927 63.193 54.5874 63.1981 54.5821 63.2032C53.8537 63.9196 53.9854 64.9283 54.5336 65.4894C54.8247 65.7876 55.2448 65.9713 55.6848 65.9713C56.0732 65.9713 56.4766 65.8283 56.8205 65.4947C57.5538 64.7835 57.4291 63.7737 56.8844 63.2088Z" fill="url(#paint0_linear)"/>
<path d="M71.3846 32.3771C71.0771 31.5477 70.1561 31.1247 69.3266 31.4315C68.4973 31.7387 68.074 32.6599 68.3812 33.4894C69.7637 37.2217 70.4645 41.1512 70.4645 45.1691C70.4645 63.7116 55.3789 78.797 36.8366 78.797C29.9559 78.797 23.3417 76.7339 17.7082 72.8306C16.9815 72.3269 15.9836 72.5077 15.4799 73.2348C14.9761 73.9618 15.1571 74.9594 15.8842 75.4631C22.0559 79.7394 29.3011 81.9997 36.8367 81.9997C46.6746 81.9997 55.9235 78.1686 62.88 71.212C69.8364 64.2557 73.6675 55.0067 73.6675 45.1689C73.6671 40.7704 72.899 36.4665 71.3846 32.3771Z" fill="url(#paint1_linear)"/>
<path d="M49.2385 10.4792C45.2655 9.0586 41.093 8.33838 36.8364 8.33838C26.9985 8.33838 17.7496 12.1695 10.7931 19.1257C3.8367 26.0824 0.00561523 35.3314 0.00561523 45.1691C0.00561523 52.7981 2.31763 60.1176 6.69213 66.3361C7.00379 66.7794 7.49947 67.0163 8.00332 67.0163C8.32155 67.0163 8.64299 66.9217 8.9231 66.7245C9.64652 66.2155 9.82045 65.2166 9.31164 64.4934C5.31879 58.8171 3.20825 52.1349 3.20825 45.169C3.20825 26.6264 18.2938 11.541 36.8362 11.541C40.7245 11.541 44.5343 12.1983 48.16 13.4948C48.9927 13.7926 49.9094 13.3589 50.207 12.5261C50.5049 11.6935 50.0712 10.7771 49.2385 10.4792Z" fill="url(#paint2_linear)"/>
<path d="M81.8723 13.2802C81.6244 12.6817 81.0406 12.2917 80.3928 12.2917H71.9787L72.8835 11.3869C73.5088 10.7616 73.5088 9.7475 72.8835 9.12209C72.2581 8.49684 71.2443 8.49684 70.6188 9.12209L69.7024 10.0385V1.60149C69.7024 0.953977 69.3121 0.369889 68.7139 0.121967C68.1154 -0.125954 67.4265 0.0111392 66.9688 0.469025L52.852 14.5858C52.5517 14.8861 52.3829 15.2934 52.3829 15.7181V21.2731C47.7639 18.2516 42.4389 16.6654 36.8363 16.6654C21.1194 16.6654 8.33252 29.4523 8.33252 45.1692C8.33252 60.8861 21.1194 73.673 36.8363 73.673C42.0529 73.673 47.1564 72.2503 51.5951 69.559C52.3514 69.1005 52.5926 68.1157 52.1342 67.3594C51.6758 66.6033 50.691 66.3617 49.9348 66.8204C45.9967 69.2081 41.4673 70.4702 36.8363 70.4702C22.8853 70.4702 11.5352 59.1202 11.5352 45.169C11.5352 31.2178 22.8853 19.8679 36.8363 19.8679C42.533 19.8679 47.9059 21.7144 52.3829 25.2075V27.3576L49.4647 30.2758C46.0568 27.3816 41.6474 25.6326 36.8363 25.6326C26.0639 25.6326 17.3 34.3965 17.3 45.1689C17.3 55.9413 26.0639 64.7052 36.8363 64.7052C47.6087 64.7052 56.3726 55.9413 56.3726 45.1689C56.3726 40.3579 54.6237 35.9485 51.7293 32.5404L54.6591 29.6107H56.7895C60.2416 34.035 62.1372 39.5388 62.1372 45.1689C62.1372 49.8898 60.8289 54.4944 58.3539 58.4847C57.8876 59.2362 58.1191 60.2234 58.8709 60.6896C59.1337 60.8526 59.4251 60.9303 59.7133 60.9303C60.2491 60.9303 60.7725 60.6614 61.0757 60.1729C63.8656 55.6753 65.34 50.487 65.34 45.1689C65.34 39.6376 63.7152 34.2142 60.7197 29.6107H66.2757C66.7004 29.6107 67.1075 29.4419 67.408 29.1416L81.5247 15.0248C81.9831 14.5674 82.12 13.8786 81.8723 13.2802ZM53.1703 45.1692C53.1703 54.1756 45.843 61.5029 36.8366 61.5029C27.8302 61.5029 20.5029 54.1756 20.5029 45.1692C20.5029 36.1628 27.8302 28.8355 36.8366 28.8355C40.7644 28.8355 44.3724 30.2294 47.1931 32.5481L43.546 36.1952C41.6743 34.792 39.3509 33.9599 36.8368 33.9599C30.6559 33.9599 25.6274 38.9885 25.6274 45.1692C25.6274 51.3501 30.656 56.3785 36.8368 56.3785C43.0177 56.3785 48.0461 51.3499 48.0461 45.1692C48.0461 42.6551 47.2139 40.3317 45.8108 38.4598L49.4578 34.8127C51.7764 37.6334 53.1703 41.2414 53.1703 45.1692ZM35.7043 46.3017C36.0171 46.6144 36.4268 46.7708 36.8366 46.7708C37.2464 46.7708 37.6561 46.6144 37.9689 46.3017L43.5133 40.7572C44.3527 42.0233 44.8433 43.5398 44.8433 45.1692C44.8433 49.5841 41.2515 53.1759 36.8366 53.1759C32.4217 53.1759 28.8299 49.5841 28.8299 45.1692C28.8299 40.7543 32.4217 37.1625 36.8366 37.1625C38.4662 37.1625 39.9825 37.6531 41.2487 38.4925L35.7043 44.0369C35.0789 44.6621 35.0789 45.6761 35.7043 46.3017ZM55.5859 24.1551V16.3815L66.4999 5.46749V13.2411L55.5859 24.1551ZM65.6128 26.4084H57.8622L68.7762 15.4944H76.5268L65.6128 26.4084Z" fill="url(#paint3_linear)"/>
<path d="M13.0261 68.9151C12.7284 68.6173 12.3153 68.4458 11.8941 68.4458C11.4712 68.4458 11.0581 68.6172 10.762 68.9151C10.4625 69.213 10.2927 69.626 10.2927 70.0472C10.2927 70.4684 10.4625 70.8815 10.762 71.1793C11.0597 71.4772 11.4713 71.6486 11.8941 71.6486C12.3153 71.6486 12.7284 71.4772 13.0261 71.1793C13.324 70.8815 13.4955 70.4684 13.4955 70.0472C13.4955 69.626 13.3242 69.2146 13.0261 68.9151Z" fill="url(#paint4_linear)"/>
</g>
<defs>
<linearGradient id="paint0_linear" x1="56.748" y1="64.0798" x2="56.9869" y2="65.268" gradientUnits="userSpaceOnUse">
<stop stop-color="#FFDA67"/>
<stop offset="1" stop-color="#FF7638"/>
</linearGradient>
<linearGradient id="paint1_linear" x1="63.1723" y1="52.5294" x2="66.4297" y2="71.2223" gradientUnits="userSpaceOnUse">
<stop stop-color="#FFDA67"/>
<stop offset="1" stop-color="#FF7638"/>
</linearGradient>
<linearGradient id="paint2_linear" x1="41.2736" y1="32.8873" x2="46.2337" y2="54.0288" gradientUnits="userSpaceOnUse">
<stop stop-color="#FFDA67"/>
<stop offset="1" stop-color="#FF7638"/>
</linearGradient>
<linearGradient id="paint3_linear" x1="68.7728" y1="30.8224" x2="74.1865" y2="57.7388" gradientUnits="userSpaceOnUse">
<stop stop-color="#FFDA67"/>
<stop offset="1" stop-color="#FF7638"/>
</linearGradient>
<linearGradient id="paint4_linear" x1="12.9207" y1="69.7857" x2="13.156" y2="70.9559" gradientUnits="userSpaceOnUse">
<stop stop-color="#FFDA67"/>
<stop offset="1" stop-color="#FF7638"/>
</linearGradient>
<clipPath id="clip0">
<rect width="82" height="82" fill="white"/>
</clipPath>
</defs>
</svg>

<svg width="82" height="82" viewBox="0 0 82 82" fill="none" xmlns="http://www.w3.org/2000/svg"><g clip-path="url(#clip0)"><path d="M56.884 63.209a1.604 1.604 0 00-2.286-.021l-.016.015a1.604 1.604 0 00-.048 2.286c.29.299.71.482 1.15.482.39 0 .793-.143 1.137-.476a1.604 1.604 0 00.063-2.286z" fill="url(#paint0_linear)"/><path d="M71.385 32.377a1.602 1.602 0 00-3.004 1.112 33.512 33.512 0 012.084 11.68c0 18.543-15.086 33.628-33.628 33.628-6.881 0-13.495-2.063-19.129-5.966a1.601 1.601 0 10-1.824 2.632C22.056 79.74 29.301 82 36.837 82c9.838 0 19.086-3.831 26.043-10.788 6.956-6.956 10.788-16.205 10.788-26.043 0-4.399-.769-8.702-2.283-12.792z" fill="url(#paint1_linear)"/><path d="M49.239 10.48a36.73 36.73 0 00-12.403-2.142C27 8.338 17.75 12.17 10.793 19.126 3.837 26.082.006 35.33.006 45.169c0 7.63 2.312 14.949 6.686 21.167a1.599 1.599 0 002.231.389 1.601 1.601 0 00.389-2.232C5.319 58.817 3.208 52.135 3.208 45.17c0-18.543 15.086-33.628 33.628-33.628 3.889 0 7.698.657 11.324 1.954a1.601 1.601 0 001.079-3.016z" fill="url(#paint2_linear)"/><path d="M81.872 13.28a1.601 1.601 0 00-1.48-.988H71.98l.904-.905a1.602 1.602 0 00-2.264-2.265l-.917.917V1.6A1.602 1.602 0 0066.97.47L52.852 14.586c-.3.3-.47.707-.47 1.132v5.555c-4.618-3.021-9.943-4.608-15.546-4.608-15.717 0-28.503 12.787-28.503 28.504s12.786 28.504 28.503 28.504c5.217 0 10.32-1.423 14.76-4.114a1.601 1.601 0 00-1.661-2.739 25.257 25.257 0 01-13.099 3.65c-13.95 0-25.3-11.35-25.3-25.301 0-13.951 11.35-25.301 25.3-25.301 5.697 0 11.07 1.846 15.547 5.34v2.15l-2.918 2.918a19.449 19.449 0 00-12.629-4.643c-10.772 0-19.536 8.764-19.536 19.536 0 10.772 8.764 19.536 19.536 19.536 10.773 0 19.537-8.764 19.537-19.536 0-4.811-1.75-9.22-4.644-12.629l2.93-2.93h2.13a25.358 25.358 0 015.348 15.559c0 4.72-1.308 9.325-3.783 13.316a1.601 1.601 0 102.722 1.688 28.435 28.435 0 004.264-15.004 28.589 28.589 0 00-4.62-15.558h5.556c.424 0 .832-.17 1.132-.47l14.117-14.116a1.6 1.6 0 00.347-1.745zM53.17 45.17c0 9.006-7.327 16.333-16.333 16.333-9.007 0-16.334-7.327-16.334-16.334 0-9.006 7.327-16.333 16.334-16.333 3.927 0 7.535 1.393 10.356 3.712l-3.647 3.647a11.15 11.15 0 00-6.71-2.235c-6.18 0-11.209 5.029-11.209 11.21 0 6.18 5.029 11.209 11.21 11.209 6.18 0 11.21-5.03 11.21-11.21 0-2.514-.833-4.837-2.236-6.71l3.647-3.646a16.259 16.259 0 013.712 10.356zm-17.466 1.132a1.601 1.601 0 002.265-.001l5.544-5.544a7.959 7.959 0 011.33 4.412c0 4.415-3.592 8.007-8.006 8.007-4.415 0-8.007-3.592-8.007-8.007 0-4.415 3.592-8.006 8.007-8.006 1.63 0 3.145.49 4.412 1.33l-5.545 5.544a1.601 1.601 0 000 2.265zm19.882-22.147v-7.774L66.5 5.467v7.774L55.586 24.155zm10.027 2.253h-7.75l10.913-10.914h7.75L65.614 26.408z" fill="url(#paint3_linear)"/><path d="M13.026 68.915a1.613 1.613 0 00-1.132-.47 1.606 1.606 0 00-1.601 1.601 1.606 1.606 0 001.601 1.603c.421 0 .834-.172 1.132-.47.298-.297.47-.71.47-1.132 0-.421-.172-.832-.47-1.132z" fill="url(#paint4_linear)"/></g><defs><linearGradient id="paint0_linear" x1="56.748" y1="64.08" x2="56.987" y2="65.268" gradientUnits="userSpaceOnUse"><stop stop-color="#FFDA67"/><stop offset="1" stop-color="#FF7638"/></linearGradient><linearGradient id="paint1_linear" x1="63.172" y1="52.529" x2="66.43" y2="71.222" gradientUnits="userSpaceOnUse"><stop stop-color="#FFDA67"/><stop offset="1" stop-color="#FF7638"/></linearGradient><linearGradient id="paint2_linear" x1="41.274" y1="32.887" x2="46.234" y2="54.029" gradientUnits="userSpaceOnUse"><stop stop-color="#FFDA67"/><stop offset="1" stop-color="#FF7638"/></linearGradient><linearGradient id="paint3_linear" x1="68.773" y1="30.822" x2="74.186" y2="57.739" gradientUnits="userSpaceOnUse"><stop stop-color="#FFDA67"/><stop offset="1" stop-color="#FF7638"/></linearGradient><linearGradient id="paint4_linear" x1="12.921" y1="69.786" x2="13.156" y2="70.956" gradientUnits="userSpaceOnUse"><stop stop-color="#FFDA67"/><stop offset="1" stop-color="#FF7638"/></linearGradient><clipPath id="clip0"><path fill="#fff" d="M0 0h82v82H0z"/></clipPath></defs></svg>
